images/defend.svg

<svg width="27" height="30" viewBox="0 0 27 30" fill="none" xmlns="http://www.w3.org/2000/svg">
<path d="M20.4548 10.4076C20.211 10.1638 19.8148 10.1638 19.571 10.4076L11.2635 18.7151L6.70477 14.1576C6.46102 13.9138 6.06475 13.9138 5.821 14.1576C5.57725 14.4013 5.57725 14.7976 5.821 15.0413L10.821 20.0413C10.9435 20.1626 11.1035 20.2238 11.2635 20.2238C11.4235 20.2238 11.5835 20.1626 11.7047 20.0413L20.4547 11.2913C20.6985 11.0475 20.6985 10.6513 20.4548 10.4076Z" fill="#99D4FF"/>
<path d="M24.9996 18.1251C24.9996 22.5138 18.0458 27.1289 13.1245 28.7201C8.2033 27.1289 1.24951 22.5138 1.24951 18.1251V4.84014L13.1245 1.27763L24.9996 4.84014V18.1251Z" fill="#99D4FF"/>
<path d="M20.4553 10.4076C20.2115 10.1638 19.8153 10.1638 19.5715 10.4076L11.264 18.7151L6.70525 14.1576C6.4615 13.9138 6.06523 13.9138 5.82148 14.1576C5.57773 14.4013 5.57773 14.7976 5.82148 15.0413L10.8215 20.0413C10.944 20.1626 11.1039 20.2238 11.264 20.2238C11.424 20.2238 11.5839 20.1626 11.7052 20.0413L20.4552 11.2913C20.699 11.0475 20.699 10.6513 20.4553 10.4076Z" fill="#99D4FF"/>
<path d="M13.125 28.7201C18.0463 27.1289 25 22.5138 25 18.1251V4.84014L13.125 1.27763L13.125 28.7201Z" fill="#8BCDFC"/>
<path d="M10.9105 19.0687L11.2641 19.4221L11.6176 19.0686L19.9251 10.7611C19.9736 10.7126 20.0532 10.7126 20.1017 10.7611L20.4504 10.4124L20.1017 10.7611C20.1502 10.8096 20.1502 10.8892 20.1017 10.9378L11.3517 19.6878C11.328 19.7115 11.2969 19.7238 11.264 19.7238C11.2319 19.7238 11.1998 19.7119 11.1738 19.6865C11.1736 19.6863 11.1733 19.6861 11.1731 19.6859L6.17504 14.6878C6.12655 14.6393 6.12655 14.5596 6.17504 14.5111C6.22353 14.4626 6.30321 14.4626 6.3517 14.5111L6.35175 14.5112L10.9105 19.0687Z" stroke="#318CCA"/>
<path d="M0.588049 4.25534L0.588694 4.25515L13.0876 0.505463C13.0877 0.50543 13.0879 0.505397 13.088 0.505364C13.1122 0.498204 13.1366 0.498225 13.1608 0.505349C13.1609 0.50538 13.161 0.505412 13.1611 0.505443L25.6593 4.25491C25.6594 4.25495 25.6596 4.25499 25.6597 4.25503C25.715 4.2719 25.75 4.32102 25.75 4.37501V18.125C25.75 20.6433 23.8116 23.1239 21.1636 25.2013C18.5414 27.2584 15.3608 28.8103 13.1613 29.4951L13.1608 29.4953C13.153 29.4977 13.1411 29.5 13.125 29.5C13.1089 29.5 13.097 29.4977 13.0892 29.4953L13.0885 29.4951C10.8892 28.8109 7.70862 27.259 5.08644 25.2018C2.4384 23.1243 0.5 20.6434 0.5 18.125V4.37501C0.5 4.31884 0.536983 4.27059 0.588049 4.25534ZM12.9712 29.1957L13.125 29.2454L13.2788 29.1957C15.7969 28.3815 18.8202 26.8008 21.2222 24.8605C22.4243 23.8894 23.4859 22.8162 24.2504 21.6888C25.0139 20.563 25.5 19.3547 25.5 18.125V4.84001V4.46799L25.1437 4.36109L13.2687 0.798592L13.125 0.75549L12.9813 0.798592L1.10631 4.36109L0.749981 4.46799V4.84001V18.125C0.749981 19.3547 1.23614 20.563 1.99959 21.6888C2.76417 22.8162 3.82577 23.8894 5.02784 24.8605C7.42986 26.8008 10.4531 28.3815 12.9712 29.1957Z" stroke="#8BCDFC"/>
</svg>

<svg width="27" height="30" fill="none" xmlns="http://www.w3.org/2000/svg"><path d="M20.455 10.408a.625.625 0 00-.884 0l-8.308 8.307-4.558-4.557a.625.625 0 00-.884.883l5 5a.628.628 0 00.884 0l8.75-8.75a.625.625 0 000-.883z" fill="#99D4FF"/><path d="M25 18.125c0 4.389-6.954 9.004-11.876 10.595C8.204 27.13 1.25 22.514 1.25 18.125V4.84l11.874-3.562L25 4.84v13.285z" fill="#99D4FF"/><path d="M20.455 10.408a.625.625 0 00-.883 0l-8.308 8.307-4.559-4.557a.625.625 0 00-.884.883l5 5a.627.627 0 00.884 0l8.75-8.75a.625.625 0 000-.883z" fill="#99D4FF"/><path d="M13.125 28.72C18.046 27.13 25 22.514 25 18.125V4.84L13.125 1.278V28.72z" fill="#8BCDFC"/><path d="M10.91 19.069l.354.353.354-.353 8.307-8.308a.125.125 0 01.177 0l.348-.349-.348.35a.125.125 0 010 .176l-8.75 8.75a.123.123 0 01-.088.036.128.128 0 01-.09-.038s0 0 0 0l-4.999-4.998a.126.126 0 010-.177.125.125 0 01.177 0h0l4.559 4.558z" stroke="#318CCA"/><path d="M.588 4.255h0l12.5-3.75s0 0 0 0a.126.126 0 01.073 0s0 0 0 0l12.498 3.75s0 0 0 0c.056.017.091.066.091.12v13.75c0 2.518-1.938 4.999-4.586 7.076-2.623 2.057-5.803 3.61-8.003 4.294h0a.123.123 0 01-.036.005.123.123 0 01-.036-.005h0c-2.2-.684-5.38-2.236-8.003-4.293C2.438 23.124.5 20.643.5 18.125V4.375c0-.056.037-.104.088-.12zm12.383 24.94l.154.05.154-.05c2.518-.814 5.541-2.394 7.943-4.335 1.202-.97 2.264-2.044 3.028-3.171.764-1.126 1.25-2.334 1.25-3.564V4.468l-.356-.107L13.269.8l-.144-.044-.144.044L1.106 4.36l-.356.107v13.657c0 1.23.486 2.438 1.25 3.564.764 1.127 1.826 2.2 3.028 3.171 2.402 1.94 5.425 3.521 7.943 4.336z" stroke="#8BCDFC"/></svg>
